X:136 
T:Miss Thornton's (reel)
F:file ID: cre.5/136miss_t
B:CRE5.120i (InÃÂÃÂÃÂÃÂ­on UÃÂÃÂÃÂÃÂ­ DhroighneÃÂÃÂÃÂÃÂ¡in)
N:Not the same tune as O'Neill's 1850 (#1266)
Q:180
M:4/4
R:reel
K:G
G2GB AGEG|c2cd edBd|B2B2 cBAG|FDAD GFED|
G2GB AGEG|c2cd edBd|B2B2 cBAG|FDFA G2 G2||
g2dg egdg|g2bg eg a2|g2dg eg d2|egfa g2g2|
g2dg egdg|g2bg eaa2|bagf gfed|eaaf gedB||

%%%

